!!!OTL: Was wollen wir singen und heben an Was von dem himmlischen Ackersmann
!!!ARE: Europa, Mitteleuropa, Deutschland, Westfalen, Muenster
!!!SCT: D0265
!!!YEM: Copyright 1995, estate of Helmut Schaffrath.
**kern
*ICvox
*Ivox
*M3/4
*k[b-e-a-d-]
*A-:
{4e-
=1
2a-
4b-
=2
2cc
4dd-
=3
2cc
4b-
=4
2a-}
{4cc
=5
4b-
4cc
4b-
=6
4.g
8g
4g
=7
4b-
4a-
4f
=8
2g}
{4e-
=9
4f
4e-
4B-
=10
2e-}
{4e-
=11
2a-
4b-
=12
2cc
4dd-
=13
2cc
4b-
=14
2a-}
==
!!!AGN: geistliches Lied
!! Inzipit = Variante zum Lied (?); Variante zu D0018 ??
!!!ONB: ESAC (Essen Associative Code) Database: DVA
!!!AMT: simple triple
!!!AIN: vox
!!!EED: Helmut Schaffrath
!!!EEV: 1.0
*-
